X: 78
I: linebreak $
T: Old Mole
T: longways for three couples
C: 
P: 11 times through
K: C major
M: 6/4
L: 1/8
"C"c4c2 "Am"A3Bc2 | "Dm"d4B2 "G"G4G2 | "C"c4c2 "Am"A3Bc2 | "G"d6 g6 | "C"e4c2 "Am"A3Bc2 | "G"d4B2 G4G2 | 
"Am"A3Bc2 "G"B3cd2 | "C"c6- c4c2 | "C"c3dc2 "Am"A3Bc2 | "G"d2B4 G4c2 | "C"c3dc2 "F"A3Bc2 | "G"d6 g6 | 
"Em"e3de2 "Am"c3de2 | "G"d2B4 "C"G4G2 | "F"A3Bc2 "G"d2B4 | "C"c12 |] 

